X:140
T:Llongau Caernarfon - The Ships of Caernarfon
M:2/4
L:1/8
Q:110
C:Trad.
S:J. Glyn Davies: Cerddi Huw Puw 1923
R:Slow air
N:Tune is originally Norwegian
K:G
GF EG | F>E (3DEF | E2 E2 | GF EF | GB AG/F/ | G2 G2 |
GF GA | Bc BF- | FF/G/ AB | GE EG | F>E (3DEF | E2 E2
| GA B2 | B4 | cB A2 | A4 | BA GF | EG (3FED | E2 E2-| E4 ||
